svg/timer_sand_empty.svg

<?xml version="1.0" encoding="UTF-8"?><!DOCTYPE svg PUBLIC "-//W3C//DTD SVG 1.1//EN" "http://www.w3.org/Graphics/SVG/1.1/DTD/svg11.dtd"><svg xmlns="http://www.w3.org/2000/svg" xmlns:xlink="http://www.w3.org/1999/xlink" version="1.1" id="mdi-timer-sand-empty" width="24" height="24" viewBox="0 0 24 24"><path d="M6,2V8H6V8L10,12L6,16V16H6V22H18V16H18V16L14,12L18,8V8H18V2H6M16,16.5V20H8V16.5L12,12.5L16,16.5M12,11.5L8,7.5V4H16V7.5L12,11.5Z" /></svg>

<svg xmlns="http://www.w3.org/2000/svg" viewBox="0 0 24 24"><path d="M6 2v6l4 4-4 4v6h12v-6l-4-4 4-4V2zm10 14.5V20H8v-3.5l4-4zm-4-5-4-4V4h8v3.5z"/></svg>
